X: 1
T: da Fields o'Foula
C: trad Shetland
R: jig
B: Tom Anderson "Ringing Strings" 1983
M: 6/8
L: 1/8
K: D
g \
| "D"f2g afd | "G"g2f "A7"e2g | "D"f2g afd | f2a f2d \
| "D"f2g afd | "G"g2f "A7"e2A | A2A def | "D"d2d d2 :|
|: B  \
| "D"A2A F2A | d2f "A7"ecA | "D"def "A7"ecA | "D"BAF D2F/F/ \
| "A7"E2E "D"F2A | d2f "A7"ecA | "D"def "A7"ecA | "D"d3 d2 :|
